svgs/light/caravan-simple.svg

<svg xmlns="http://www.w3.org/2000/svg" viewBox="0 0 640 512"><!--! Font Awesome Pro 6.4.2 by @fontawesome - https://fontawesome.com License - https://fontawesome.com/license (Commercial License) Copyright 2023 Fonticons, Inc. --><path d="M80 64c-26.5 0-48 21.5-48 48V336c0 26.5 21.5 48 48 48h21.5c13.2-37.3 48.7-64 90.5-64s77.4 26.7 90.5 64H544V192c0-70.7-57.3-128-128-128H80zM96 416H80c-44.2 0-80-35.8-80-80V112C0 67.8 35.8 32 80 32H416c88.4 0 160 71.6 160 160V384l48 0c8.8 0 16 7.2 16 16s-7.2 16-16 16l-48 0H544 288c0 53-43 96-96 96s-96-43-96-96zM256 160H128v64H256V160zM128 128H256c17.7 0 32 14.3 32 32v64c0 17.7-14.3 32-32 32H128c-17.7 0-32-14.3-32-32V160c0-17.7 14.3-32 32-32zm224 32v64h64V160H352zm-32 0c0-17.7 14.3-32 32-32h64c17.7 0 32 14.3 32 32v64c0 17.7-14.3 32-32 32H352c-17.7 0-32-14.3-32-32V160zM256 416a64 64 0 1 0 -128 0 64 64 0 1 0 128 0z"/></svg>

<svg xmlns="http://www.w3.org/2000/svg" viewBox="0 0 640 512"><!--! Font Awesome Pro 6.1.1 by @fontawesome - https://fontawesome.com License - https://fontawesome.com/license (Commercial License) Copyright 2022 Fonticons, Inc. --><path d="M256 128C273.7 128 288 142.3 288 160V224C288 241.7 273.7 256 256 256H128C110.3 256 96 241.7 96 224V160C96 142.3 110.3 128 128 128H256zM256 160H128V224H256V160zM320 160C320 142.3 334.3 128 352 128H416C433.7 128 448 142.3 448 160V224C448 241.7 433.7 256 416 256H352C334.3 256 320 241.7 320 224V160zM352 224H416V160H352V224zM96 416H80C35.82 416 0 380.2 0 336V112C0 67.82 35.82 32 80 32H416C504.4 32 576 103.6 576 192V384H624C632.8 384 640 391.2 640 400C640 408.8 632.8 416 624 416H288C288 469 245 512 192 512C138.1 512 96 469 96 416zM32 112V336C32 362.5 53.49 384 80 384H101.5C114.6 346.7 150.2 320 192 320C233.8 320 269.4 346.7 282.5 384H544V192C544 121.3 486.7 64 416 64H80C53.49 64 32 85.49 32 112zM192 352C156.7 352 128 380.7 128 416C128 451.3 156.7 480 192 480C227.3 480 256 451.3 256 416C256 380.7 227.3 352 192 352z"/></svg>
